svg/u1f195.svg

<svg viewBox="0 0 128 128" xmlns="http://www.w3.org/2000/svg">
  <g>
    <path d="M116,4H12c-4.42,0-8,3.58-8,8v104c0,4.42,3.58,8,8,8h104c4.42,0,8-3.58,8-8V12 C124,7.58,120.42,4,116,4z" fill="#427687"/>
    <path d="M109.7,4H11.5C7.37,4.03,4.03,7.37,4,11.5v97.9c-0.01,4.14,3.34,7.49,7.48,7.5c0.01,0,0.01,0,0.02,0 h98.1c4.14,0.01,7.49-3.34,7.5-7.48c0-0.01,0-0.01,0-0.02V11.5c0.09-4.05-3.13-7.41-7.18-7.5C109.85,4,109.77,4,109.7,4z" fill="#8CAFBF"/>
    <path d="M39.7,12.9c0-2.3-1.6-3-10.8-2.7c-7.7,0.3-11.5,1.2-13.8,4 s-2.9,8.5-3,15.3c0,4.8,0,9.3,2.5,9.3c3.4,0,3.4-7.9,6.2-12.3C26.2,17.8,39.7,15.9,39.7,12.9z" opacity="0.5" fill="#B4E1ED" enable-background="new "/>
  </g>
  <g>
    <path d="M40.95,80.3h-8.66L18.32,56h-0.2c0.28,4.29,0.42,7.35,0.42,9.18V80.3h-6.09V48.18h8.59L35,72.24 h0.15c-0.22-4.17-0.33-7.13-0.33-8.85V48.18h6.13V80.3z" fill="#FAFAFA"/>
    <path d="M66.41,80.3h-18.5V48.18h18.5v5.58H54.72v7.05H65.6v5.58H54.72v8.28h11.69V80.3z" fill="#FAFAFA"/>
    <path d="M105.53,80.3h-7.76l-4.35-16.88c-0.16-0.6-0.44-1.84-0.82-3.72c-0.39-1.88-0.61-3.15-0.67-3.79 c-0.09,0.79-0.31,2.06-0.66,3.81s-0.62,3-0.81,3.75L86.13,80.3h-7.73l-8.2-32.12h6.7l4.11,17.53c0.72,3.24,1.24,6.04,1.56,8.42 c0.09-0.84,0.29-2.13,0.6-3.88c0.32-1.75,0.61-3.11,0.89-4.08l4.68-18h6.44l4.68,18c0.21,0.81,0.46,2.04,0.77,3.69 c0.31,1.66,0.54,3.08,0.7,4.26c0.15-1.14,0.38-2.57,0.7-4.27c0.32-1.71,0.62-3.09,0.88-4.14L107,48.18h6.7L105.53,80.3z" fill="#FAFAFA"/>
  </g>
</svg>

<svg viewBox="0 0 128 128" xmlns="http://www.w3.org/2000/svg">
  <defs/>
  <path d="M116,4 L12,4 C7.58,4 4,7.58 4,12 L4,116 C4,120.42 7.58,124 12,124 L116,124 C120.42,124 124,120.42 124,116 L124,12 C124,7.58 120.42,4 116,4 Z" fill="#427687"/>
  <path d="M109.7,4 L11.5,4 C7.37,4.03 4.03,7.37 4,11.5 L4,109.4 C3.99,113.54 7.34,116.89 11.48,116.9 C11.49,116.9 11.49,116.9 11.5,116.9 L109.6,116.9 C113.74,116.91 117.09,113.56 117.1,109.42 C117.1,109.41 117.1,109.41 117.1,109.4 L117.1,11.5 C117.19,7.45 113.97,4.09 109.92,4 C109.85,4 109.77,4 109.7,4 Z" fill="#8CAFBF"/>
  <path d="M39.7,12.9 C39.7,10.6 38.1,9.9 28.9,10.2 C21.2,10.5 17.4,11.4 15.1,14.2 C12.8,17 12.2,22.7 12.1,29.5 C12.1,34.3 12.1,38.8 14.6,38.8 C18,38.8 18,30.9 20.8,26.5 C26.2,17.8 39.7,15.9 39.7,12.9 Z" fill="#B4E1ED" opacity="0.5"/>
  <path d="M40.95,80.3 L32.29,80.3 L18.32,56 L18.12,56 C18.4,60.29 18.54,63.35 18.54,65.18 L18.54,80.3 L12.45,80.3 L12.45,48.18 L21.04,48.18 L35,72.24 L35.15,72.24 C34.93,68.07 34.82,65.11 34.82,63.39 L34.82,48.18 L40.95,48.18 L40.95,80.3 Z" fill="#FAFAFA"/>
  <path d="M66.41,80.3 L47.91,80.3 L47.91,48.18 L66.41,48.18 L66.41,53.76 L54.72,53.76 L54.72,60.81 L65.6,60.81 L65.6,66.39 L54.72,66.39 L54.72,74.67 L66.41,74.67 L66.41,80.3 Z" fill="#FAFAFA"/>
  <path d="M105.53,80.3 L97.77,80.3 L93.42,63.42 C93.26,62.82 92.98,61.58 92.6,59.7 C92.21,57.82 91.99,56.55 91.93,55.91 C91.84,56.7 91.62,57.97 91.27,59.72 C90.92,61.47 90.65,62.72 90.46,63.47 L86.13,80.3 L78.4,80.3 L70.2,48.18 L76.9,48.18 L81.01,65.71 C81.73,68.95 82.25,71.75 82.57,74.13 C82.66,73.29 82.86,72 83.17,70.25 C83.49,68.5 83.78,67.14 84.06,66.17 L88.74,48.17 L95.18,48.17 L99.86,66.17 C100.07,66.98 100.32,68.21 100.63,69.86 C100.94,71.52 101.17,72.94 101.33,74.12 C101.48,72.98 101.71,71.55 102.03,69.85 C102.35,68.14 102.65,66.76 102.91,65.71 L107,48.18 L113.7,48.18 L105.53,80.3 Z" fill="#FAFAFA"/>
</svg>
